X:219
T:Polska efter J.J. Bruun
R:sl\"angpolska
A:Sk{\aa}ne
B:SvL Sk 573, efter J.J. Bruun, S\"arsl\"ov
Z:id:hn-sp-219
M:3/4
L:1/16
K:A
cd | efed cdef e2a2 | afdf fece d2de | fdDd fdDd fdDd |
faga bagf f2e2 | efga baga f4 | fece edBd d2c2 | Acec Adfd ceaf |
[1 ecdB G4 A2 :|2 ecdB G4 A4 |: B2B2 c2d2 edcB | c2e2 ecAc ecAc |
BABc dcde f2e2 | edcd c2e2 e2fg | a4 a2ga bagf | f2e2 efed d2c2 |
Acec Adfd ceaf |1 ecdB G4 A4 :|2 ecdB G4 A2 ||

